X:291
T:B291-  London is a Fine Town
S:(2nd/2)
Q:1/4=120
L:1/4
M:C|
K:Gdorian
c2|AFFD|F2F2|GABc|dd2e|\
ffee|ffFF|GGAB|G2:|]

